!!!COA: Josquin des Prez
!!!CDT: ~1450-1521/08/27
!!!OTL@@FRA: De tous biens plaine
!!!AGN: Chanson
!!!SCT: NJE 28.9
!!!SCA: New Josquin Edition 28.9
!!!voices: 4
**kern	**kern	**kern	**kern
*staff4	*staff3	*staff2	*staff1
*Ivox	*Ivox	*Ivox	*Ivox
*I"Bassus2	*I"Bassus1	*I"Tenor	*I"Superius
*I'B2	*I'B1	*I'T	*I'S
*clefF4	*clefF4	*clefGv2	*clefG2
*k[b-]	*k[b-]	*k[b-]	*k[b-]
*M2/1	*M2/1	*M2/1	*M2/1
*met(C|)	*met(C|)	*met(C|)	*met(C|)
=1-	=1-	=1-	=1-
!	!LO:TX:X=-50:Z=24:t=Canon&colon; Petrus & Joannes current In puncto	!	!LO:TX:X=-50:Z=6:t=NB&colon; Two upper voices by Hayne van Ghizeghem
2r	2.G\	[0G	0g
2.G\	.	.	.
.	4A\	.	.
.	2B-\	.	.
4A\	.	.	.
2B-\	2G\	.	.
=2	=2	=2	=2
2G\	2.B-\	0G]	1.g
2.B-\	.	.	.
.	4c\	.	.
.	2d\	.	.
4c\	.	.	.
2d\	2G\	.	4f/
.	.	.	4e/
=3	=3	=3	=3
2G\	2r	0B-	1d
2r	2d\	.	.
2d\	2B-\	.	[1g
2B-\	2d\	.	.
=4	=4	=4	=4
2d\	2D\	0A	1g]
2D\	2F\	.	.
2F\	2D\	.	1f#i
2D\	2d\	.	.
=5	=5	=5	=5
2d\	2B-\	1G	1g
2B-\	2G\	.	.
2G\	4d\	[1B-	1g
.	4c\	.	.
4d\	4B-\	.	.
4c\	4A\	.	.
=6	=6	=6	=6
4B-\	2G\	1B-]	1g
4A\	.	.	.
2G\	2r	.	.
2r	1F	1c	1a
[2F\	.	.	.
=7	=7	=7	=7
2F\]	4D\	0d	2b-\
.	4E\	.	.
4D\	2F\	.	4a/
4E\	.	.	4g/
2F\	2D\	.	1f
2D\	2r	.	.
=8	=8	=8	=8
2r	2G\	1e-	1g
2G\	2.B-\	.	.
2.B-\	.	1d	[1f
.	4c\	.	.
.	[2d\	.	.
4c\	.	.	.
=9	=9	=9	=9
2.d\	4d\]	0B-	1f]
.	4c\	.	.
.	4B-\	.	.
4c\	4A\	.	.
4B-\	1G	.	2g/
4A\	.	.	.
[2G\	.	.	2f/
=10	=10	=10	=10
2G\]	2C/	1c	1e
2C/	2.G\	.	.
2.G\	.	1B-	[1d
.	4A\	.	.
.	[2B-\	.	.
4A\	.	.	.
=11	=11	=11	=11
1B-	2B-\]	0d	1d]
.	2BB-/	.	.
2BB-/	2B-\	.	2f/
2B-\	2r	.	2g/
=12	=12	=12	=12
2r	1F	1c	1a
1F	.	.	.
.	2BB-/	1d	[1b-
2BB-/	[2B-\	.	.
=13	=13	=13	=13
2.B-\	4B-\]	0G	2b-\]
.	4c\	.	.
.	2d\	.	2a/
4c\	.	.	.
2d\	4B-\	.	[1g
.	4c\	.	.
4B-\	2d\	.	.
4c\	.	.	.
=14	=14	=14	=14
2d\	2D\	0A	1g]
2D\	2d\	.	.
2d\	2D\	.	1f#i
2D\	2d\	.	.
=15	=15	=15	=15
2d\	2B-\	[0G	0g
2B-\	4G\	.	.
.	4A\	.	.
4G\	4B-\	.	.
4A\	4c\	.	.
4B-\	2d\	.	.
4c\	.	.	.
=16	=16	=16	=16
2d\	4G\	0G]	1r
.	4A\	.	.
4G\	4B-\	.	.
4A\	4c\	.	.
4B-\	2d\	.	1g
4c\	.	.	.
2d\	[2G\	.	.
=17	=17	=17	=17
2.G\	4G\]	1r	0b-
.	4A\	.	.
.	4B-\	.	.
4A\	4c\	.	.
4B-\	2d\	1G	.
4c\	.	.	.
2d\	2r	.	.
=18	=18	=18	=18
2r	2.D\	1F	1a
2.D\	.	.	.
.	4D\	.	.
.	2D\	1F	1a
4D\	.	.	.
2D\	2D\	.	.
=19	=19	=19	=19
2D\	2GG/	1B-	1g
2GG/	2BB-/	.	.
2BB-/	2GG/	1B-	1g
2GG/	[2D\	.	.
=20	=20	=20	=20
2.D\	4D\]	1A	1.a
.	4E\	.	.
.	2F\	.	.
4E\	.	.	.
2F\	2D\	[1d	.
2D\	2A\	.	4g/
.	.	.	4f/
=21	=21	=21	=21
2A\	2AA/	2d\]	0e
2AA/	2r	4c#i\	.
.	.	4Bni\	.
2r	2A\	1c#i	.
2A\	2r	.	.
=22	=22	=22	=22
2r	2.D\	1.d	2d/
2.D\	.	.	1f
.	4E\	.	.
.	4F\	.	.
4E\	4G\	.	.
4F\	4A\	4c\	4e/
4G\	4B-\	4B-\	4d/
=23	=23	=23	=23
4A\	2c\	1A	1c
4B-\	.	.	.
2c\	2r	.	.
2r	1G	1B-	1d
[2G\	.	.	.
=24	=24	=24	=24
2G\]	2C/	0c	0e
2C/	2c\	.	.
2c\	2A\	.	.
2A\	[2c\	.	.
=25	=25	=25	=25
2.c\	4c\]	0A	1c
.	4B-\	.	.
.	4A\	.	.
4B-\	4G\	.	.
4A\	2F\	.	1f
4G\	.	.	.
2F\	2c\	.	.
=26	=26	=26	=26
2c\	2C/	1G	2e/
2C/	2r	.	2d/
2r	2D\	1F	[1d
2D\	2r	.	.
=27	=27	=27	=27
2r	2.AA/	0E	1d]
2.AA/	.	.	.
.	4AA/	.	.
.	2AA/	.	1c#i
4AA/	.	.	.
2AA/	[2A\	.	.
=28	=28	=28	=28
2.A\	4A\]	[0D	0d
.	4A\	.	.
.	2A\	.	.
4A\	.	.	.
2A\	2D\	.	.
2D\	[2F\	.	.
=29	=29	=29	=29
2.F\	4F\]	0D]	1r
.	4G\	.	.
.	2A\	.	.
4G\	.	.	.
2A\	2.D\	.	2f/
[2D\	.	.	2g/
.	4E\	.	.
=30	=30	=30	=30
4D\]	2F\	1r	1.a
4E\	.	.	.
2F\	4D\	.	.
.	4E\	.	.
4D\	4F\	1d	.
4E\	4G\	.	.
4F\	4A\	.	4g/
4G\	4B-\	.	4f/
=31	=31	=31	=31
4A\	2c\	1c	1e
4B-\	.	.	.
2c\	2r	.	.
2r	1d	1B-	[1d
[2d\	.	.	.
=32	=32	=32	=32
2d\]	2B-\	0G	1d]
2B-\	2G\	.	.
2G\	4B-\	.	[1g
.	4c\	.	.
4B-\	2d\	.	.
4c\	.	.	.
=33	=33	=33	=33
2d\	1D	0A	1g]
1D	.	.	.
.	2r	.	1f#i
2r	[2d\	.	.
=34	=34	=34	=34
2.d\	4d\]	1G	1.g
.	4c\	.	.
.	4B-\	.	.
4c\	4A\	.	.
4B-\	4G\	[1B-	.
4A\	4F\	.	.
4G\	2G\	.	4f/
4F\	.	.	4e/
=35	=35	=35	=35
2G\	2r	1B-]	1d
2r	2G\	.	.
2G\	2C/	1c	[1c
2C/	[2c\	.	.
=36	=36	=36	=36
2.c\	4c\]	0A	1c]
.	4B-\	.	.
.	4A\	.	.
4B-\	4G\	.	.
4A\	2F\	.	1f
4G\	.	.	.
2F\	2c\	.	.
=37	=37	=37	=37
2c\	2C/	0G	1e
2C/	4G\	.	.
.	4A\	.	.
4G\	4B-\	.	[1d
4A\	4c\	.	.
4B-\	2d\	.	.
4c\	.	.	.
=38	=38	=38	=38
2d\	2G\	1B-	1d]
2G\	2r	.	.
2r	2A\	1A	1c
2A\	2r	.	.
=39	=39	=39	=39
2r	2D\	1F	1.d
2D\	2r	.	.
2r	2GG/	[1G	.
2GG/	2r	.	4c/
.	.	.	4B-/
=40	=40	=40	=40
2r	2D\	1G]	0A
2D\	2r	.	.
2r	2D\	1F#i	.
2D\	2r	.	.
=41	=41	=41	=41
2r	2GG/	[0G	0G
2GG/	4G\	.	.
.	4F\	.	.
4G\	4G\	.	.
4F\	4A\	.	.
4G\	2B-\	.	.
4A\	.	.	.
=42	=42	=42	=42
2B-\	4G\	0G]	1r
.	4F\	.	.
4G\	4G\	.	.
4F\	4A\	.	.
4G\	4B-\	.	1G
4A\	4c\	.	.
4B-\	2d\	.	.
4c\	.	.	.
=43	=43	=43	=43
2d\	1G	1r	2B-/
1G	.	.	2c/
.	1r	1G	1d
2r	.	.	.
=44	=44	=44	=44
0r	0r	1A	1c
.	.	1F	1f
=45	=45	=45	=45
0r	0r	1G	2e/
.	.	.	2d/
.	.	1D	[1d
=46	=46	=46	=46
0r	0r	0E	1d]
.	.	.	1c#i
=47	=47	=47	=47
2r	1A	[0D	0d
1A	.	.	.
.	2D\	.	.
2D\	2A\	.	.
=48	=48	=48	=48
2A\	2F\	0D]	1r
2F\	2.A\	.	.
2.A\	.	.	1d
.	4G\	.	.
.	4F\	.	.
4G\	4E\	.	.
=49	=49	=49	=49
4F\	2.D\	1r	2f/
4E\	.	.	.
2.D\	.	.	2g/
.	4E\	.	.
.	2.F\	1D	[1a
4E\	.	.	.
[2F\	.	.	.
.	4G\	.	.
=50	=50	=50	=50
4F\]	1A	0F	1a]
4G\	.	.	.
1A	.	.	.
.	1r	.	2cc\
2r	.	.	2a/
=51	=51	=51	=51
2r	2d\	1G	1.b-
2d\	2.B-\	.	.
2.B-\	.	1G	.
.	4c\	.	.
.	2d\	.	4a/
4c\	.	.	4g/
=52	=52	=52	=52
2d\	2D\	1A	1f
2D\	2r	.	.
2r	2G\	1B-	1g
2G\	2r	.	.
=53	=53	=53	=53
2r	2.F\	1c	1a
2.F\	.	.	.
.	4E\	.	.
.	4D\	[1d	1f
4E\	4C/	.	.
4D\	2BB-/	.	.
4C/	.	.	.
=54	=54	=54	=54
2BB-/	2r	1d]	2b-\
2r	2B-\	.	2a/
2B-\	2E-\	1e-i	1g
2E-\	2B-\	.	.
=55	=55	=55	=55
2B-\	2r	1d	0f
2r	2BB-/	.	.
2BB-/	2r	[1B-	.
2r	4B-\	.	.
.	4c\	.	.
=56	=56	=56	=56
4B-\	4d\	1B-]	1b-
4c\	4e\	.	.
4d\	2f\	.	.
4e\	.	.	.
2f\	2F\	1c	1a
2F\	2r	.	.
=57	=57	=57	=57
2r	2BB-/	1d	1b-
2BB-/	2r	.	.
2r	2F\	1c	2cc\
2F\	2r	.	2b-\
=58	=58	=58	=58
2r	2D\	1d	2a/
2D\	2r	.	2g/
2r	1d	1B-	[1g
[2d\	.	.	.
=59	=59	=59	=59
2d\]	2D\	0A	1g]
2D\	2d\	.	.
2d\	2D\	.	1f#i
2D\	2d\	.	.
=60	=60	=60	=60
2d\	2B-\	[0Gl	[0gl
2B-\	2G\	.	.
2G\	4d\	.	.
.	4c\	.	.
4d\	4B-\	.	.
4c\	4A\	.	.
=61	=61	=61	=61
4B-\	0Gl	0G]	0g]
4A\	.	.	.
1.Gl	.	.	.
==	==	==	==
*-	*-	*-	*-
!!!RDF**kern: l=long note in original notation
!!!RDF**kern: i=editorial accidental
!!!ENC: Jesse Rodin; Victoria Chang 2011/07/26
!!!END: 2011/07/26/
!!!EED: Jesse Rodin
!!!EEV: 2011/08/08/
!!attribution-level@Jos: 2 (slightly less secure)
!!!ONB: Translated from MusicXML and edited on 2011/08/08/ by Craig Sapp
!!muse2ps:  C^@{COM}{/}@{COA}?\n@{SCT}^v90,100,90,150I150Q16
